X:1
T:Truth
T:The King's Arrival (Piano Solo) Game Of Thrones OST Season 1 Episode 1 
T: Composed by Ramin Djawadi Piano arrangement by Nicolas Del Gallo Full playthrough and more at https://www.youtube.com/c/NDGmusic If you want to donate, please check out my Patreon ☺ https://www.patreon.com/ndg 
%%score { ( 1 3 ) | ( 2 4 ) }
L:1/8
Q:3/8=90
M:6/8
K:Db
V:1 treble nm="Piano" snm="Pno."
V:3 treble 
V:2 bass 
V:4 bass 
V:1
 B, |!mp! B,3 B,B,B, | B,3 B,B,B, | B,3 B,CD | B,3 B,CD | B,2 B,/B,/ EDC | F,=G,A, (2:3:2B,D | %7
 B,3 B,CD | B,3 z B,C | [B,-D]3 [B,E]3 | B,3 z B,C | [B,-D]3 [B,F]3 | (2:3:2[B,-E]D [B,D]3 | %13
 B,3- [B,D]3 | B,6 | B,2 B,/B,/ B,CD | B,2 B,/B,/ EED | B,3 F3 | B,CD DEF | B,3 B,CD | B,2 B, EDE | %21
 B,3 E3 | B,CD DEC | B,3 B,3 | B,3 B,CA, | B,3 B,3 | B,3 B,CA, | B,3 B,3 | B,3 z3 | %29
!mf! !arpeggio![F,B,F]2 B,/B,/ B,B,B, | B,3 B,CD | B,2 B,/B,/ EDC | B,B,B,!<(! B,B,C!<)! | %33
!f! D3!>(! E3 | B,3 B,!>)!B,!mf!C | D3 F3 | (2:3:2ED (2:3:2DC | B,3 D3 | B,2 B,/B,/ B,B,B, | %39
 B,3 B,B,B, | C3 D3 | E3 C3 | B,6- | B,6 ||[K:Eb] !fermata!z2 C |!mf! C3 CCC | C3 CCC | %47
 C3 C[CD][CE] | C3 C[CD][CE] | C2 C F[CE][CD] | [G,C]=A,B, (2:3:2C[CE] | C3 C[CD][CE] | %52
 C2 C F[CE][CD] | C3 C[CD][CE] | (2:3:2G,[CEG] (2:3:2B,[B,EGB] | %55
!f! [G,CG]2!<(! G [G,G][=A,=A][B,B] | [G,G]3 [CGc]3 | G3 [G,G][=A,=A][B,B] | [CF=Ac]3 [E_Ace]3 | %59
 [Cc]3 [cc'][cc'][cc'] | (2:3:2[cc'][EA] (2:3:2[cc'][DG] | (2:3:2[Cc][CF]!<)! [CF]!ff![Cc][Dd] | %62
 [EAce]3 [F=Acf]3 | [CGc]3 z [Cc][Dd] | [EAce]3 [F=Acg]3 | (2:3:2[Fcf][EAce] [EAce]3 | %66
 [CFc]3 [EAe]3 | [CEGc]3 z [Cc][Dd] |!>(! [EAe]3 [F=Acf]3 | [Cc]6!>)! | %70
!mf! [EGB]2 [F=A] [EGB]2 [FA] |[I:staff +1] E,2 D, (2:3:2E,F, | %72
[I:staff -1] [EGB]2 [F=A] [EGB]2 [FAc] |[I:staff +1] E,2 D, (2:3:2G,F, | %74
[I:staff -1] [EGB]2 [F=A] [EGB]2 [FA] |!>(! [C=E=Ac]3 [CEAc]3!>)! | %76
!p! [=A,C]!<(!!>![A,C=E=A]!>![CEAc]!<)!!mf! _EDC | [F,=A,C]3 [G,B,]3 | [E,A,C]3 z3 | %79
 [F,=A,C]3 [G,B,]3 | [A,CE]3[I:staff +1] E,D,C, | C,D,E, G,,A,,G,, | %82
[I:staff -1] [G,CEG]3 [^F,=A,D^F]3 | [G,B,EG]3[I:staff +1] C,E,D, | %84
[I:staff -1] [B,EB]3 [=A,D^F=A]3 | [B,EGB]6 | %86
[M:3/4]"_pesante"!f![Q:3/8=120][Q:1/4=90] !>![C,C]2 [=B,,=B,]2 [C,C]2 | [C,C]2 [=B,,=B,]2 [C,C]2 | %88
 [C,C]2 [=B,,=B,]2 [C,C]2 | [C,C][D,D] (3[D,D][E,E][F,F] (3[E,E][D,D][C,C] | %90
 [C,C]2 [=B,,=B,]2 [F,F]2 | [E,E]2 [C,C]2 [G,G]2 | [F,F]2 [D,D]2 [F,F]2 | %93
 [G,G]2 (3[G,G][=A,=A][B,B] z2 | (3[B,B][=A,=A][G,G] z2 (3[G,G][A,A][B,B] | %95
[K:Bb]!<(! (3[D,D][=E,=E][F,F] (3[D,D][E,E][F,F] (3[Dd][Dd][E=e]!<)! | %96
[M:6/8][Q:3/8=120][Q:3/8=90]!ff! [FBdf]3 [G=Bdg]3 | [DAd]3 z [Dd][=E=e] | [FBdf]3 [G=Bda]3 | %99
 (2:3:2[Gdg][FBdf] [FBdf]3 | [DGBd]3 [FBdf]3 | [D^FAd]3 z [Dd][=E=e] |!>(! [FBdf]3 [G=Bdg]3 | %103
 [DAd]3 z3!>)! |!mf! [FAc]2 [G=B] [FAc]2 [GB] |[I:staff +1] F,2 =E, (2:3:2F,G, | %106
[I:staff -1] [FAc]2 [G=B] [FAc]2 [GBd] |[I:staff +1] F,2 =E, (2:3:2A,G, | %108
[I:staff -1] [FAc]2 [G=B] [FAc]2 [GB] |!f! [D^F=Bd]3 [DFBd]3 | [D^F=Bd]3 [DFBd][DFBd][DFBd] | %111
 [=E=B=e]3 [^G,=B,E]3 |!>(! z3 [=E,^G,=B,][E,G,B,][E,G,B,]!>)! ||[K:F]!mf![I:staff +1] D,3 D,3 | %114
 D,3 D,3 | D,3 D,3 | D,3 D,3 |!p!!<(! D,3 D,E,F, | D,E,F, D,E,F, | %119
[I:staff -1] [D,D][E,E][F,F] [D,D][E,E][F,F]!<)! |!f! [G,=B,D]3 [F,A,D]3 | [F,B,D]3 z3 | %122
 [G,=B,DG]3 [F,A,CF]3 | [F,B,D]3!>(! DDD!>)! |!mf! [D,D]3 DDD |"_dim." D3 DDD | D3 DDD | %127
 [D,D]3 DDD | D3 DDD | [D,D]3 DDD | D3 DDD | [D,D]3 DDD | D3 DDD |!<(! [D,D]EF DGD | FDF DFE!<)! | %135
!mf! [A,DF]3 [D,D]3 | [D,D]3 [D,D]3 | [E,CEG]3 [E,E]3 | [E,E]3 [E,E]3 | [F,CFA]3 [F,F]3 | %140
 [F,F]3 [F,F]3 |[I:staff +1] G,3 G,F,G, | F,3 F,E,G, |"_dim."[I:staff -1] [D,F,A,D]3 [D,D]3 | %144
 [D,D]3 [D,D]3 | [D,B,D]3 [D,D]3 | [D,D]3 [D,D]3 |"_rit." [D,D]3 [D,D]3 | %148
 !arpeggio!!fermata![C,G,C]6 |] %149
V:2
 z | [B,,F,]6 | z6 | [B,,F,]6 | z6 | [B,,F,]6 | z6 | [B,,F,]6 | [B,,F,]3 z3 | [B,,-G,]3 [B,,E,]3 | %10
 [B,,F,]3 z z2 | [B,,-G,]3 [B,,E,]3 | (2:3:2[B,,-G,]G, [B,,G,]3 | [B,,-E,]3 [B,,G,]3 | [B,,,B,,]6 | %15
"_Sost."!ped! [B,,F,]6!ped-up! |!ped! z6!ped-up! |!ped! [B,,F,]6!ped-up! |!ped! z6!ped-up! | %19
!ped! [B,,F,]6!ped-up! |!ped! z6!ped-up! |!ped! [B,,F,]6!ped-up! |!ped! z6!ped-up! | %23
!ped! [B,,F,]6!ped-up! |!ped! z6!ped-up! |!ped! [B,,F,]6!ped-up! |!ped! z6!ped-up! | %27
!ped! [B,,F,]6!ped-up! |!ped! [B,,F,]3!ped-up! z3 | [B,,,B,,-]6 | [B,,F,]6 | [B,,-F,]6 | %32
 [B,,F,]3 [B,,F,][B,,F,][B,,F,] | [B,,F,B,]3 [B,,A,]3 | [B,,=G,]3 [B,,G,][B,,G,][B,,G,] | %35
 [B,,_G,]3 [B,,G,]3 | (2:3:2[B,,F,][B,,F,] [B,,F,]3 | [B,,G,]3 [B,,G,]3 | B,,3 F,F,F, | %39
 [B,,F,]3 F,E,D, | [B,,C,]3 D,3 | [B,,E,]3 C,3 | [B,,,B,,]6- | [B,,,B,,]6 ||[K:Eb] z2 z | [C,G,]6 | %46
 G,6 | !>![C,,,C,,]6 | [C,,C,]3 C,3 | [C,,C,]3 C,3 | C,3 C,3 | [C,,,C,,]3 C,3 | [C,,C,]3 C,3 | %53
 [C,,C,]3 C,3 | [C,,C,]3 [C,,C,]3 | [C,,C,]3 G,,=A,,B,, | [C,,C,]3 [C,G,]3 | [C,,C,]3 G,,=A,,B,, | %58
 [C,,C,]3 [C,C]>[D,D][E,E] | [C,,C,]3 [C,G,][C,F,][C,G,] | %60
 (2:3:2[C,,C,][E,A,] (2:3:2[C,,C,][D,G,] | (2:3:2[C,,C,][C,F,] [C,F,][C,,C,][B,,,B,,] | %62
 [A,,,A,,]3 [F,,,F,,]3 | [C,,,C,,]>C,,,C,,/C,,,/ (2:3:2[C,,,C,,][C,,,C,,] | [E,,E,]3 [C,,C,]3 | %65
 (2:3:2[E,,E,][E,,E,] [E,,E,]3 | [F,,F,]3 [A,,A,]3 | %67
 [C,,C,]>C,,,C,,/C,,,/ (2:3:2[C,,,C,,][C,,,C,,] | [A,,,A,,]3 [F,,,F,,]3 | %69
 [C,,,C,,]>C,,,C,,/C,,,/ (2:3:2[C,,,C,,][C,,,C,,] | z6 | %71
 [E,,,E,,]2 [D,,,D,,] (2:3:2[E,,,E,,][F,,,F,,] | z6 | %73
 [E,,,E,,]2 [D,,,D,,] (2:3:2[G,,,G,,][F,,,F,,] | z6 | [=A,,,=A,,]3 [A,,,A,,]3 | %76
 [=A,,,=A,,][A,,,A,,][A,,,A,,] [E,,E,][D,,D,][C,,C,] | [F,,,F,,]3 [G,,,G,,]3 | %78
 [A,,,A,,]3 C,,D,,/E,,/-E,, | F,,3 G,,3 | A,,3 E,,D,,C,, | C,,D,,E,, G,,,A,,,G,,, | %82
 [C,,,C,,]3 [D,,,D,,]3 | [E,,,E,,]3 [C,,,C,,][E,,,E,,][D,,,D,,] | [C,,,C,,]3 [D,,,D,,]3 | %85
 [E,,,E,,]>E,,,E,,/E,,,/ [E,,,E,,][E,,,E,,][E,,,E,,] | %86
[M:3/4] [F,,,F,,]4- [F,,,F,,](3F,,,/F,,/F,,,/ | [E,,,E,,]4- [E,,,E,,]3/2E,,/4E,,,/4 | %88
 [D,,,D,,]4- [D,,,D,,]>[D,,,D,,] | [E,,,E,,]2 [F,,,F,,]2 (3[F,,,F,,][A,,,A,,][G,,,G,,] | %90
 [F,,,F,,]6 | [E,,,E,,]3 (3E,,/E,,,/E,,/ [E,,,E,,][E,,,E,,] | [D,,,D,,]6 | %93
 [G,,,G,,]2 [G,,G,]2 [G,,,G,,]2 | [G,,G,]2 [G,,,G,,]2 [G,,G,]2 | %95
[K:Bb] [D,,,D,,]2 [D,,,D,,]2 (3[D,,D,][D,,D,][C,,C,] |[M:6/8] [B,,,B,,]3 [G,,,G,,]3 | %97
 [D,,,D,,]>D,,,D,,/D,,,/ (2:3:2[D,,,D,,][D,,,D,,] | [B,,,B,,]3 [G,,,G,,]3 | %99
 (2:3:2[B,,,B,,]B,, [B,,,B,,]3 | [G,,,G,,]3 [B,,,B,,]3 | %101
 [D,,,D,,]>D,,,D,,/D,,,/ (2:3:2[D,,,D,,][D,,,D,,] | [B,,,B,,]3 [G,,,G,,]3 | %103
 [D,,,D,,]>D,,,D,,/D,,,/ (2:3:2[D,,,D,,][D,,,D,,] | z6 | %105
 [F,,,F,,]2 [=E,,,=E,,] (2:3:2[F,,,F,,][G,,,G,,] | z6 | %107
 [F,,,F,,]2 [=E,,,=E,,] (2:3:2[A,,,A,,][G,,,G,,] | z6 | [=B,,=B,]2 B,, [=B,,,B,,]3 | %110
 [=B,,=B,]2 B,, [=B,,,B,,][B,,,B,,][B,,,B,,] |!ped! [=E,,=E,]3!ped-up! z3 | [=E,,,=E,,]3 z z2 || %113
[K:F] [D,,,D,,]3 A,,3 | G,,3 G,,F,,E,, | [D,,,D,,]3 A,,3 | G,,3 A,,B,,C, | z6 | z3 D,,3 | %119
 [D,,D,]3 [D,,D,]3 | [G,,,G,,]2 G,, [A,,,A,,]3 | [B,,,B,,]>B,,,B,, [B,,,B,,][B,,,B,,][B,,,B,,] | %122
 [G,,,G,,]2 [G,,,G,,] [A,,,A,,]2 [A,,,A,,] | [B,,,B,,]3 z3 | [D,,,D,,]6 | %125
 !>![D,,,D,,]3 !>![A,,,A,,]3 | !>![G,,,G,,]3 !>![G,,,G,,]!>![F,,,F,,]!>![E,,,E,,] | !>![D,,,D,,]6 | %128
 D,,6 | D,,,3- D,,,2 [D,,,D,,] | [D,,,D,,]6 | [D,,,D,,]3- [D,,,D,,]2 [D,,,D,,] | %132
 [D,,,D,,]3- [D,,,D,,]2 [D,,,D,,] | [D,,,D,,]3 [D,,,D,,]3 | [D,,,D,,]3 [D,,,D,,]A,,C, | %135
 [D,,A,,D,]3- [D,,A,,D,]2 D,,- | [D,,,D,,]3- [D,,,D,,]2 [D,,,D,,] | [E,,,E,,]3- [E,,,E,,]2 E,,- | %138
 [E,,C,]3- [E,,C,]2 [E,,,E,,] | [F,,,F,,]3- [F,,,F,,]2 [F,,,F,,] | %140
 [F,,,F,,]3 [F,,,F,,][G,,,G,,][A,,,A,,] | [G,,,G,,]3 G,,F,,G,, | F,,3 F,,E,,G,, | D,,,6- | D,,,6- | %145
 D,,,6- | [D,,,D,,]6- | [D,,,D,,]6 | !arpeggio![C,,,C,,]6 |] %149
V:3
 x | x6 | x6 | x6 | x6 | x6 | x6 | x6 | x6 | x6 | x6 | x6 | x6 | x6 | x6 | bfb fbf | afa faf | %17
 =gfg fgf | f3 f=ga | bfb fbf | beb ebe | bdb dbd | B6 | [Bb]2 [Bb]2 [Bb]2 | [Bb]2 [Bb]2 [Bb]2 | %25
 [Bb]2 [Bb]2 [Bb]2 | [Bb]2 [Bb]2 [Bb]2 | [Bb]2 [Bb]2 [Bb]2 | [Bb]3 x3 | x6 | x6 | x6 | x6 | x6 | %34
 x6 | x6 | x6 | x6 | x6 | x6 | x6 | x6 | x6 | x6 ||[K:Eb] x3 | x6 | x6 | x6 | x6 | x6 | x6 | x6 | %52
 x6 | x6 | x6 | x6 | x6 | x6 | x6 | x6 | x6 | x6 | x6 | x6 | x6 | x6 | x6 | x6 | x6 | x6 | x6 | %71
 x6 | x6 | x6 | x6 | x6 | x6 | x6 | x6 | x6 | x6 | x6 | x6 | x6 | x6 | x6 |[M:3/4] x6 | x6 | x6 | %89
 x6 | x6 | x6 | x6 | x6 | x6 |[K:Bb] x6 |[M:6/8] x6 | x6 | x6 | x6 | x6 | x6 | x6 | x6 | x6 | x6 | %106
 x6 | x6 | x6 | x6 | x6 | x6 | x6 ||[K:F] x6 | x6 | x6 | x6 | x6 | x6 | x6 | x6 | x6 | x6 | x6 | %124
 x6 | x6 | x6 | x6 | x6 | x6 | x6 | x6 | x6 | x6 | x6 | x6 | x6 | x6 | x6 | x6 | x6 | x6 | x6 | %143
 x6 | x6 | x6 | x6 | x6 | x6 |] %149
V:4
 x | x6 | x6 | x6 | x6 | x6 | x6 | x6 | x6 | x6 | x6 | x6 | x6 | x6 | x6 | x6 | x6 | x6 | x6 | x6 | %20
 x6 | x6 | x6 | x6 | x6 | x6 | x6 | x6 | x6 | x6 | x6 | x6 | x6 | x6 | x6 | x6 | x6 | x6 | x6 | %39
 x6 | x6 | x6 | x6 | x6 ||[K:Eb] x3 | x6 | x6 | x6 | x6 | x6 | x6 | x6 | x6 | x6 | x6 | x6 | x6 | %57
 x6 | x6 | x6 | x6 | x6 | x6 | x6 | x6 | x6 | x6 | x6 | x6 | x6 | x6 | x6 | x6 | x6 | x6 | x6 | %76
 x6 | x6 | x6 | x6 | x6 | x6 | x6 | x6 | x6 | x6 |[M:3/4] x6 | x6 | x6 | x6 | x6 | x6 | x6 | x6 | %94
 x6 |[K:Bb] x6 |[M:6/8] x6 | x6 | x6 | x6 | x6 | x6 | x6 | x6 | x6 | x6 | x6 | x6 | x6 | x6 | x6 | %111
 x6 | x6 ||[K:F] x6 | x6 | x6 | x6 | x6 | x6 | x6 | x6 | x6 | x6 | x6 | x6 | x6 | x6 | x6 | x6 | %129
 x6 | x6 | x6 | x6 | x6 | x6 | x6 | x6 | x6 | x6 | x6 | x6 | x6 | x6 | D,,3- D,,2 D,, | %144
 D,,3- D,,2 D,, | D,,3- D,,2 D,, | x6 | x6 | x6 |] %149

